material/.icons/material/window-open.svg

<svg xmlns="http://www.w3.org/2000/svg" viewBox="0 0 24 24"><path d="M6 8h4V6h4v2h4V4H6v4m12 2H6v5h12v-5M6 20h12v-3H6v3M6 2h12a2 2 0 012 2v16a2 2 0 01-2 2H6a2 2 0 01-2-2V4a2 2 0 012-2z"/></svg>

<?xml version="1.0" encoding="UTF-8"?><!DOCTYPE svg PUBLIC "-//W3C//DTD SVG 1.1//EN" "http://www.w3.org/Graphics/SVG/1.1/DTD/svg11.dtd"><svg xmlns="http://www.w3.org/2000/svg" xmlns:xlink="http://www.w3.org/1999/xlink" version="1.1" id="mdi-window-open" width="24" height="24" viewBox="0 0 24 24"><path d="M6,8H10V6H14V8H18V4H6V8M18,10H6V15H18V10M6,20H18V17H6V20M6,2H18A2,2 0 0,1 20,4V20A2,2 0 0,1 18,22H6A2,2 0 0,1 4,20V4A2,2 0 0,1 6,2Z" /></svg>
